src/apps/scalable/plexamp.svg

<?xml version="1.0" encoding="UTF-8" standalone="no"?>
<svg
   xmlns:dc="http://purl.org/dc/elements/1.1/"
   xmlns:cc="http://creativecommons.org/ns#"
   xmlns:rdf="http://www.w3.org/1999/02/22-rdf-syntax-ns#"
   xmlns:svg="http://www.w3.org/2000/svg"
   xmlns="http://www.w3.org/2000/svg"
   xmlns:xlink="http://www.w3.org/1999/xlink"
   xmlns:sodipodi="http://sodipodi.sourceforge.net/DTD/sodipodi-0.dtd"
   xmlns:inkscape="http://www.inkscape.org/namespaces/inkscape"
   width="128"
   height="128"
   viewBox="0 0 33.866666 33.866668"
   version="1.1"
   id="svg1422"
   inkscape:version="1.0.1 (3bc2e813f5, 2020-09-07)"
   sodipodi:docname="plexamp.svg">
  <defs
     id="defs1416">
    <linearGradient
       inkscape:collect="always"
       xlink:href="#linearGradient1630"
       id="linearGradient1632"
       x1="132.21078"
       y1="42.151531"
       x2="132.21078"
       y2="68.187286"
       gradientUnits="userSpaceOnUse"
       gradientTransform="matrix(0.97573207,0,0,0.97573207,-111.72155,-37.264398)" />
    <linearGradient
       inkscape:collect="always"
       id="linearGradient1630">
      <stop
         style="stop-color:#2d2d2d;stop-opacity:1"
         offset="0"
         id="stop1626" />
      <stop
         style="stop-color:#1f1f1f;stop-opacity:1"
         offset="1"
         id="stop1628" />
    </linearGradient>
    <linearGradient
       inkscape:collect="always"
       xlink:href="#linearGradient1405"
       id="linearGradient1407-3"
       x1="-56.921726"
       y1="16.753901"
       x2="-33.091309"
       y2="16.753901"
       gradientUnits="userSpaceOnUse"
       gradientTransform="matrix(0.90611644,0,0,0.90611644,57.775514,1.8201451)" />
    <linearGradient
       inkscape:collect="always"
       id="linearGradient1405">
      <stop
         style="stop-color:#d08519;stop-opacity:1"
         offset="0"
         id="stop1401" />
      <stop
         style="stop-color:#f1c81d;stop-opacity:1"
         offset="1"
         id="stop1403" />
    </linearGradient>
  </defs>
  <sodipodi:namedview
     id="base"
     pagecolor="#ffffff"
     bordercolor="#666666"
     borderopacity="1.0"
     inkscape:pageopacity="0.0"
     inkscape:pageshadow="2"
     inkscape:zoom="5.6"
     inkscape:cx="60.577986"
     inkscape:cy="37.939883"
     inkscape:document-units="mm"
     inkscape:current-layer="layer1"
     inkscape:document-rotation="0"
     showgrid="false"
     units="px"
     inkscape:window-width="1514"
     inkscape:window-height="941"
     inkscape:window-x="50"
     inkscape:window-y="27"
     inkscape:window-maximized="0" />
  <metadata
     id="metadata1419">
    <rdf:RDF>
      <cc:Work
         rdf:about="">
        <dc:format>image/svg+xml</dc:format>
        <dc:type
           rdf:resource="http://purl.org/dc/dcmitype/StillImage" />
        <dc:title></dc:title>
      </cc:Work>
    </rdf:RDF>
  </metadata>
  <g
     inkscape:label="Capa 1"
     inkscape:groupmode="layer"
     id="layer1">
    <g
       id="g1702"
       transform="matrix(0.97573206,0,0,0.97573206,-65.693613,-37.264402)"
       style="opacity:0.296765">
      <rect
         style="fill:none;fill-opacity:1;stroke:#000000;stroke-width:0.1;stroke-linecap:round;stroke-linejoin:round;stroke-miterlimit:4;stroke-dasharray:none;stroke-opacity:0.02"
         id="rect1634"
         width="29.810888"
         height="29.810888"
         x="69.839508"
         y="40.709618"
         rx="6.6098609"
         ry="6.6098609" />
      <rect
         ry="6.6098609"
         rx="6.6098609"
         y="40.709618"
         x="69.839508"
         height="29.810888"
         width="29.810888"
         id="rect1638"
         style="fill:none;fill-opacity:1;stroke:#000000;stroke-width:0.2;stroke-linecap:round;stroke-linejoin:round;stroke-miterlimit:4;stroke-dasharray:none;stroke-opacity:0.02" />
      <rect
         style="fill:none;fill-opacity:1;stroke:#000000;stroke-width:0.3;stroke-linecap:round;stroke-linejoin:round;stroke-miterlimit:4;stroke-dasharray:none;stroke-opacity:0.02"
         id="rect1640"
         width="29.810888"
         height="29.810888"
         x="69.839508"
         y="40.709618"
         rx="6.6098609"
         ry="6.6098609" />
      <rect
         ry="6.6098609"
         rx="6.6098609"
         y="40.709618"
         x="69.839508"
         height="29.810888"
         width="29.810888"
         id="rect1642"
         style="fill:none;fill-opacity:1;stroke:#000000;stroke-width:0.4;stroke-linecap:round;stroke-linejoin:round;stroke-miterlimit:4;stroke-dasharray:none;stroke-opacity:0.02" />
      <rect
         style="fill:none;fill-opacity:1;stroke:#000000;stroke-width:0.5;stroke-linecap:round;stroke-linejoin:round;stroke-miterlimit:4;stroke-dasharray:none;stroke-opacity:0.02"
         id="rect1644"
         width="29.810888"
         height="29.810888"
         x="69.839508"
         y="40.709618"
         rx="6.6098609"
         ry="6.6098609" />
      <rect
         ry="6.6098609"
         rx="6.6098609"
         y="40.709618"
         x="69.839508"
         height="29.810888"
         width="29.810888"
         id="rect1646"
         style="fill:none;fill-opacity:1;stroke:#000000;stroke-width:0.6;stroke-linecap:round;stroke-linejoin:round;stroke-miterlimit:4;stroke-dasharray:none;stroke-opacity:0.02" />
      <rect
         style="fill:none;fill-opacity:1;stroke:#000000;stroke-width:0.7;stroke-linecap:round;stroke-linejoin:round;stroke-miterlimit:4;stroke-dasharray:none;stroke-opacity:0.02"
         id="rect1648"
         width="29.810888"
         height="29.810888"
         x="69.839508"
         y="40.709618"
         rx="6.6098609"
         ry="6.6098609" />
      <rect
         ry="6.6098609"
         rx="6.6098609"
         y="40.709618"
         x="69.839508"
         height="29.810888"
         width="29.810888"
         id="rect1650"
         style="fill:none;fill-opacity:1;stroke:#000000;stroke-width:0.8;stroke-linecap:round;stroke-linejoin:round;stroke-miterlimit:4;stroke-dasharray:none;stroke-opacity:0.02" />
      <rect
         style="fill:none;fill-opacity:1;stroke:#000000;stroke-width:1;stroke-linecap:round;stroke-linejoin:round;stroke-miterlimit:4;stroke-dasharray:none;stroke-opacity:0.02"
         id="rect1652"
         width="29.810888"
         height="29.810888"
         x="69.839508"
         y="40.709618"
         rx="6.6098609"
         ry="6.6098609" />
      <rect
         ry="6.6098609"
         rx="6.6098609"
         y="40.709618"
         x="69.839508"
         height="29.810888"
         width="29.810888"
         id="rect1654"
         style="fill:none;fill-opacity:1;stroke:#000000;stroke-width:1.2;stroke-linecap:round;stroke-linejoin:round;stroke-miterlimit:4;stroke-dasharray:none;stroke-opacity:0.02" />
      <rect
         style="fill:none;fill-opacity:1;stroke:#000000;stroke-width:1.4;stroke-linecap:round;stroke-linejoin:round;stroke-miterlimit:4;stroke-dasharray:none;stroke-opacity:0.02"
         id="rect1656"
         width="29.810888"
         height="29.810888"
         x="69.839508"
         y="40.709618"
         rx="6.6098609"
         ry="6.6098609" />
      <rect
         ry="6.6098609"
         rx="6.6098609"
         y="40.709618"
         x="69.839508"
         height="29.810888"
         width="29.810888"
         id="rect1658"
         style="fill:none;fill-opacity:1;stroke:#000000;stroke-width:1.6;stroke-linecap:round;stroke-linejoin:round;stroke-miterlimit:4;stroke-dasharray:none;stroke-opacity:0.02" />
      <rect
         style="fill:none;fill-opacity:1;stroke:#000000;stroke-width:1.8;stroke-linecap:round;stroke-linejoin:round;stroke-miterlimit:4;stroke-dasharray:none;stroke-opacity:0.02"
         id="rect1660"
         width="29.810888"
         height="29.810888"
         x="69.839508"
         y="40.709618"
         rx="6.6098609"
         ry="6.6098609" />
      <rect
         ry="6.6098609"
         rx="6.6098609"
         y="40.709618"
         x="69.839508"
         height="29.810888"
         width="29.810888"
         id="rect1662"
         style="fill:none;fill-opacity:1;stroke:#000000;stroke-width:2;stroke-linecap:round;stroke-linejoin:round;stroke-miterlimit:4;stroke-dasharray:none;stroke-opacity:0.02" />
      <rect
         style="fill:none;fill-opacity:1;stroke:#000000;stroke-width:2.2;stroke-linecap:round;stroke-linejoin:round;stroke-miterlimit:4;stroke-dasharray:none;stroke-opacity:0.02"
         id="rect1664"
         width="29.810888"
         height="29.810888"
         x="69.839508"
         y="40.709618"
         rx="6.6098609"
         ry="6.6098609" />
      <rect
         ry="6.6098609"
         rx="6.6098609"
         y="40.709618"
         x="69.839508"
         height="29.810888"
         width="29.810888"
         id="rect1666"
         style="fill:none;fill-opacity:1;stroke:#000000;stroke-width:2.6;stroke-linecap:round;stroke-linejoin:round;stroke-miterlimit:4;stroke-dasharray:none;stroke-opacity:0.02" />
      <rect
         style="fill:none;fill-opacity:1;stroke:#000000;stroke-width:3;stroke-linecap:round;stroke-linejoin:round;stroke-miterlimit:4;stroke-dasharray:none;stroke-opacity:0.02"
         id="rect1668"
         width="29.810888"
         height="29.810888"
         x="69.839508"
         y="40.709618"
         rx="6.6098609"
         ry="6.6098609" />
      <rect
         ry="6.6098609"
         rx="6.6098609"
         y="40.709618"
         x="69.839508"
         height="29.810888"
         width="29.810888"
         id="rect1670"
         style="fill:none;fill-opacity:1;stroke:#000000;stroke-width:3.4;stroke-linecap:round;stroke-linejoin:round;stroke-miterlimit:4;stroke-dasharray:none;stroke-opacity:0.02" />
      <rect
         style="fill:none;fill-opacity:1;stroke:#000000;stroke-width:3.8;stroke-linecap:round;stroke-linejoin:round;stroke-miterlimit:4;stroke-dasharray:none;stroke-opacity:0.02"
         id="rect1672"
         width="29.810888"
         height="29.810888"
         x="69.839508"
         y="40.709618"
         rx="6.6098609"
         ry="6.6098609" />
      <rect
         ry="6.6098609"
         rx="6.6098609"
         y="40.709618"
         x="69.839508"
         height="29.810888"
         width="29.810888"
         id="rect1674"
         style="fill:none;fill-opacity:1;stroke:#000000;stroke-width:4.2;stroke-linecap:round;stroke-linejoin:round;stroke-miterlimit:4;stroke-dasharray:none;stroke-opacity:0.02" />
      <rect
         style="fill:none;fill-opacity:1;stroke:#000000;stroke-width:4.6;stroke-linecap:round;stroke-linejoin:round;stroke-miterlimit:4;stroke-dasharray:none;stroke-opacity:0.02"
         id="rect1676"
         width="29.810888"
         height="29.810888"
         x="69.839508"
         y="40.709618"
         rx="6.6098609"
         ry="6.6098609" />
      <rect
         ry="6.6098609"
         rx="6.6098609"
         y="40.709618"
         x="69.839508"
         height="29.810888"
         width="29.810888"
         id="rect1678"
         style="fill:none;fill-opacity:1;stroke:#000000;stroke-width:5;stroke-linecap:round;stroke-linejoin:round;stroke-miterlimit:4;stroke-dasharray:none;stroke-opacity:0.02" />
    </g>
    <rect
       style="fill:url(#linearGradient1632);fill-opacity:1;stroke-width:2.68769;stroke-linecap:round;stroke-linejoin:round"
       id="rect849"
       width="29.08744"
       height="29.08744"
       x="2.4510391"
       y="2.457279"
       rx="6.4494534"
       ry="6.4494534" />
    <path
       style="color:#000000;font-style:normal;font-variant:normal;font-weight:normal;font-stretch:normal;font-size:medium;line-height:normal;font-family:sans-serif;font-variant-ligatures:normal;font-variant-position:normal;font-variant-caps:normal;font-variant-numeric:normal;font-variant-alternates:normal;font-feature-settings:normal;text-indent:0;text-align:start;text-decoration:none;text-decoration-line:none;text-decoration-style:solid;text-decoration-color:#000000;letter-spacing:normal;word-spacing:normal;text-transform:none;writing-mode:lr-tb;direction:ltr;text-orientation:mixed;dominant-baseline:auto;baseline-shift:baseline;text-anchor:start;white-space:normal;shape-padding:0;clip-rule:nonzero;display:inline;overflow:visible;visibility:visible;opacity:1;isolation:auto;mix-blend-mode:normal;color-interpolation:sRGB;color-interpolation-filters:linearRGB;solid-color:#000000;solid-opacity:1;vector-effect:none;fill:url(#linearGradient1407-3);fill-opacity:1;fill-rule:nonzero;stroke:none;stroke-width:1.17795;stroke-linecap:butt;stroke-linejoin:miter;stroke-miterlimit:4;stroke-dasharray:none;stroke-dashoffset:0;stroke-opacity:1;color-rendering:auto;image-rendering:auto;shape-rendering:auto;text-rendering:auto;enable-background:accumulate"
       d="M 9.8989102,7.9725745 15.514356,16.003739 H 6.1983453 v 1.17866 H 17.774338 L 12.158893,9.1512335 h 0.830016 l 5.461477,7.8683485 -6.16407,9.009841 h 3.500582 L 22.08547,17.02312 16.758496,9.1512335 h 0.638883 l 5.50395,7.8701185 -6.118056,9.008071 h 3.51651 l 5.551734,-7.914361 h 1.939655 v -1.17866 H 25.23918 l -5.553503,7.914362 H 19.00609 l 5.325204,-7.838262 -6.319808,-9.0399275 h -3.472268 l 6.116287,9.0381585 -5.482713,7.840031 H 14.519751 L 19.88212,17.014272 13.604786,7.9725745 Z"
       id="path1399-5"
       inkscape:connector-curvature="0" />
  </g>
</svg>

<?xml version="1.0" encoding="UTF-8"?>
<svg id="svg1422" width="128" height="128" version="1.1" viewBox="0 0 33.867 33.867" xmlns="http://www.w3.org/2000/svg" xmlns:cc="http://creativecommons.org/ns#" xmlns:dc="http://purl.org/dc/elements/1.1/" xmlns:rdf="http://www.w3.org/1999/02/22-rdf-syntax-ns#" xmlns:xlink="http://www.w3.org/1999/xlink">
 <defs id="defs1416">
  <linearGradient id="linearGradient1632" x1="132.21" x2="132.21" y1="42.152" y2="68.187" gradientTransform="matrix(.97573 0 0 .97573 -111.72 -37.264)" gradientUnits="userSpaceOnUse">
   <stop id="stop1626" stop-color="#2d2d2d" offset="0"/>
   <stop id="stop1628" stop-color="#1f1f1f" offset="1"/>
  </linearGradient>
  <linearGradient id="linearGradient1407-3" x1="-56.922" x2="-33.091" y1="16.754" y2="16.754" gradientTransform="matrix(.90612 0 0 .90612 57.776 1.8201)" gradientUnits="userSpaceOnUse">
   <stop id="stop1401" stop-color="#d08519" offset="0"/>
   <stop id="stop1403" stop-color="#f1c81d" offset="1"/>
  </linearGradient>
 </defs>
 <metadata id="metadata1419">
  <rdf:RDF>
   <cc:Work rdf:about="">
    <dc:format>image/svg+xml</dc:format>
    <dc:type rdf:resource="http://purl.org/dc/dcmitype/StillImage"/>
    <dc:title/>
   </cc:Work>
  </rdf:RDF>
 </metadata>
 <g id="layer1">
  <g id="g1702" transform="matrix(.97573 0 0 .97573 -65.694 -37.264)" fill="none" opacity=".29676" stroke="#000" stroke-linecap="round" stroke-linejoin="round" stroke-opacity=".02">
   <rect id="rect1634" x="69.84" y="40.71" width="29.811" height="29.811" rx="6.6099" ry="6.6099" stroke-width=".1"/>
   <rect id="rect1638" x="69.84" y="40.71" width="29.811" height="29.811" rx="6.6099" ry="6.6099" stroke-width=".2"/>
   <rect id="rect1640" x="69.84" y="40.71" width="29.811" height="29.811" rx="6.6099" ry="6.6099" stroke-width=".3"/>
   <rect id="rect1642" x="69.84" y="40.71" width="29.811" height="29.811" rx="6.6099" ry="6.6099" stroke-width=".4"/>
   <rect id="rect1644" x="69.84" y="40.71" width="29.811" height="29.811" rx="6.6099" ry="6.6099" stroke-width=".5"/>
   <rect id="rect1646" x="69.84" y="40.71" width="29.811" height="29.811" rx="6.6099" ry="6.6099" stroke-width=".6"/>
   <rect id="rect1648" x="69.84" y="40.71" width="29.811" height="29.811" rx="6.6099" ry="6.6099" stroke-width=".7"/>
   <rect id="rect1650" x="69.84" y="40.71" width="29.811" height="29.811" rx="6.6099" ry="6.6099" stroke-width=".8"/>
   <rect id="rect1652" x="69.84" y="40.71" width="29.811" height="29.811" rx="6.6099" ry="6.6099"/>
   <rect id="rect1654" x="69.84" y="40.71" width="29.811" height="29.811" rx="6.6099" ry="6.6099" stroke-width="1.2"/>
   <rect id="rect1656" x="69.84" y="40.71" width="29.811" height="29.811" rx="6.6099" ry="6.6099" stroke-width="1.4"/>
   <rect id="rect1658" x="69.84" y="40.71" width="29.811" height="29.811" rx="6.6099" ry="6.6099" stroke-width="1.6"/>
   <rect id="rect1660" x="69.84" y="40.71" width="29.811" height="29.811" rx="6.6099" ry="6.6099" stroke-width="1.8"/>
   <rect id="rect1662" x="69.84" y="40.71" width="29.811" height="29.811" rx="6.6099" ry="6.6099" stroke-width="2"/>
   <rect id="rect1664" x="69.84" y="40.71" width="29.811" height="29.811" rx="6.6099" ry="6.6099" stroke-width="2.2"/>
   <rect id="rect1666" x="69.84" y="40.71" width="29.811" height="29.811" rx="6.6099" ry="6.6099" stroke-width="2.6"/>
   <rect id="rect1668" x="69.84" y="40.71" width="29.811" height="29.811" rx="6.6099" ry="6.6099" stroke-width="3"/>
   <rect id="rect1670" x="69.84" y="40.71" width="29.811" height="29.811" rx="6.6099" ry="6.6099" stroke-width="3.4"/>
   <rect id="rect1672" x="69.84" y="40.71" width="29.811" height="29.811" rx="6.6099" ry="6.6099" stroke-width="3.8"/>
   <rect id="rect1674" x="69.84" y="40.71" width="29.811" height="29.811" rx="6.6099" ry="6.6099" stroke-width="4.2"/>
   <rect id="rect1676" x="69.84" y="40.71" width="29.811" height="29.811" rx="6.6099" ry="6.6099" stroke-width="4.6"/>
   <rect id="rect1678" x="69.84" y="40.71" width="29.811" height="29.811" rx="6.6099" ry="6.6099" stroke-width="5"/>
  </g>
  <rect id="rect849" x="2.451" y="2.4573" width="29.087" height="29.087" rx="6.4495" ry="6.4495" fill="url(#linearGradient1632)" stroke-linecap="round" stroke-linejoin="round" stroke-width="2.6877"/>
  <path id="path1399-5" d="m9.8989 7.9726 5.6154 8.0312h-9.316v1.1787h11.576l-5.6154-8.0312h0.83002l5.4615 7.8683-6.1641 9.0098h3.5006l6.2986-9.0063-5.327-7.8719h0.63888l5.504 7.8701-6.1181 9.0081h3.5165l5.5517-7.9144h1.9397v-1.1787h-2.552l-5.5535 7.9144h-0.67959l5.3252-7.8383-6.3198-9.0399h-3.4723l6.1163 9.0382-5.4827 7.84h-0.65304l5.3624-7.8365-6.2773-9.0417z" color="#000000" color-rendering="auto" dominant-baseline="auto" fill="url(#linearGradient1407-3)" image-rendering="auto" shape-rendering="auto" solid-color="#000000" style="font-feature-settings:normal;font-variant-alternates:normal;font-variant-caps:normal;font-variant-ligatures:normal;font-variant-numeric:normal;font-variant-position:normal;isolation:auto;mix-blend-mode:normal;shape-padding:0;text-decoration-color:#000000;text-decoration-line:none;text-decoration-style:solid;text-indent:0;text-orientation:mixed;text-transform:none;white-space:normal"/>
 </g>
</svg>
